dist/img/s-list-icons/s_list_icon_3.svg

<svg width="50" height="51" viewBox="0 0 50 51" fill="none" xmlns="http://www.w3.org/2000/svg">
<path d="M45.1267 21.9712L43.085 30.6796C41.335 38.2004 37.8767 41.2421 31.3767 40.6171C30.335 40.5337 29.21 40.3463 28.0017 40.0546L24.5017 39.2212C15.8142 37.1587 13.1267 32.8671 15.1683 24.1588L17.21 15.4296C17.6267 13.6587 18.1267 12.1171 18.7517 10.8462C21.1892 5.80458 25.335 4.45042 32.2933 6.09625L35.7725 6.90875C44.5017 8.95042 47.1683 13.2629 45.1267 21.9712Z" stroke="#FC00FF" stroke-width="2" stroke-linecap="round" stroke-linejoin="round"/>
<path d="M31.3742 40.6173C30.0826 41.4923 28.4576 42.2214 26.4784 42.8673L23.1867 43.9506C14.9159 46.6173 10.5617 44.3881 7.87425 36.1173L5.20758 27.8881C2.54091 19.6173 4.74925 15.2423 13.0201 12.5756L16.3117 11.4923C17.1659 11.2214 17.9784 10.9923 18.7492 10.8464C18.1242 12.1173 17.6242 13.6589 17.2076 15.4298L15.1659 24.1589C13.1242 32.8673 15.8117 37.1589 24.4992 39.2214L27.9992 40.0548C29.2076 40.3464 30.3326 40.5339 31.3742 40.6173Z" stroke="#FC00FF" stroke-width="2" stroke-linecap="round" stroke-linejoin="round"/>
<path d="M26.332 17.9921L36.4362 20.5546" stroke="#FC00FF" stroke-width="2" stroke-linecap="round" stroke-linejoin="round"/>
<path d="M24.293 26.0543L30.3346 27.596" stroke="#FC00FF" stroke-width="2" stroke-linecap="round" stroke-linejoin="round"/>
</svg>

<svg width="50" height="51" viewBox="0 0 50 51" fill="none" xmlns="http://www.w3.org/2000/svg"><path d="M45.127 21.971l-2.042 8.709c-1.75 7.52-5.208 10.562-11.708 9.937a21.906 21.906 0 01-3.375-.562l-3.5-.834c-8.688-2.062-11.375-6.354-9.334-15.062l2.042-8.73c.417-1.77.917-3.312 1.542-4.583 2.437-5.041 6.583-6.396 13.541-4.75l3.48.813c8.729 2.041 11.395 6.354 9.354 15.062z" stroke="#FC00FF" stroke-width="2" stroke-linecap="round" stroke-linejoin="round"/><path d="M31.374 40.617c-1.291.875-2.916 1.604-4.896 2.25l-3.291 1.084c-8.271 2.666-12.625.437-15.313-7.834l-2.666-8.229c-2.667-8.27-.459-12.646 7.812-15.312l3.292-1.084c.854-.27 1.666-.5 2.437-.646-.625 1.271-1.125 2.813-1.541 4.584l-2.042 8.729c-2.042 8.708.646 13 9.333 15.062l3.5.834c1.209.291 2.334.479 3.375.562zm-5.042-22.625l10.104 2.563m-12.143 5.499l6.042 1.542" stroke="#FC00FF" stroke-width="2" stroke-linecap="round" stroke-linejoin="round"/></svg>
